X: 36993
T: Si-Bhean Locha Lein
R: waltz
M: 3/4
K: Adorian
AB|c2 A2 B2|c4 ge|d2 B2 A2|G4 AB|
c2 B2 A2|e2 d2 B2|B2 A2 A2|A4 AB|
c2 B2 A2|a4 ba|g2 e2 (3def|g4 (3efg|
a2 g2 e2|d2 G2 A2|B2 A2 A2|A4||

